X:1734
T:Galopp Wals No 17
T:efter M J Persson 
R:Galopp
S:Efter M J Persson, Roalöv
O:Roalöv, Skåne
B:nr 17 ur FMK M45a
Z:ABC-transkribering av Åke Persson
M:2/4
L:1/8
Q:1/4=150
K:E
EGBd | eg b2 | fagf | eg B2 | EGBd | eg b2 | fagf | e2ez ::
[K:A] fd d2 | ec c2 | dEGB | Acea | fd d2 | ec c2 | dEGB | A2 Az :|
(:musicend:)

(:music:)
